core/assets/icons/link.svg

<svg width="24" height="24" viewBox="0 0 24 24" xmlns="http://www.w3.org/2000/svg"><g id="link"><path id="Vector" d="M13.0598 8.10999L14.4748 9.52499C15.1249 10.175 15.6405 10.9467 15.9924 11.796C16.3442 12.6454 16.5253 13.5557 16.5253 14.475C16.5253 15.3943 16.3442 16.3046 15.9924 17.1539C15.6405 18.0033 15.1249 18.775 14.4748 19.425L14.1208 19.778C12.8079 21.0908 11.0274 21.8283 9.17077 21.8283C7.31416 21.8283 5.53359 21.0908 4.22077 19.778C2.90795 18.4652 2.17041 16.6846 2.17041 14.828C2.17041 12.9714 2.90795 11.1908 4.22077 9.87799L5.63577 11.293C5.16814 11.7565 4.79667 12.3079 4.5427 12.9154C4.28872 13.5229 4.15724 14.1746 4.1558 14.833C4.15435 15.4915 4.28298 16.1437 4.53429 16.7523C4.78561 17.3609 5.15465 17.9139 5.62025 18.3795C6.08585 18.8451 6.63882 19.2141 7.24743 19.4655C7.85603 19.7168 8.50828 19.8454 9.16673 19.844C9.82518 19.8425 10.4769 19.711 11.0844 19.4571C11.6919 19.2031 12.2432 18.8316 12.7068 18.364L13.0608 18.01C13.9981 17.0724 14.5247 15.8008 14.5247 14.475C14.5247 13.1492 13.9981 11.8776 13.0608 10.94L11.6458 9.52499L13.0608 8.11099L13.0598 8.10999ZM19.7778 14.121L18.3638 12.707C18.8314 12.2434 19.2029 11.6921 19.4568 11.0846C19.7108 10.4771 19.8423 9.8254 19.8437 9.16695C19.8452 8.5085 19.7166 7.85625 19.4652 7.24765C19.2139 6.63904 18.8449 6.08607 18.3793 5.62047C17.9137 5.15487 17.3607 4.78583 16.7521 4.53451C16.1435 4.2832 15.4913 4.15457 14.8328 4.15602C14.1744 4.15746 13.5227 4.28894 12.9152 4.54292C12.3077 4.79689 11.7563 5.16836 11.2928 5.63599L10.9388 5.98999C10.0014 6.92763 9.47484 8.19917 9.47484 9.52499C9.47484 10.8508 10.0014 12.1223 10.9388 13.06L12.3538 14.475L10.9388 15.889L9.52477 14.475C8.87468 13.825 8.359 13.0533 8.00717 12.2039C7.65535 11.3546 7.47426 10.4443 7.47426 9.52499C7.47426 8.60567 7.65535 7.69536 8.00717 6.84604C8.359 5.99671 8.87468 5.22501 9.52477 4.57499L9.87877 4.22199C11.1916 2.90917 12.9722 2.17163 14.8288 2.17163C16.6854 2.17163 18.4659 2.90917 19.7788 4.22199C21.0916 5.53481 21.8291 7.31538 21.8291 9.17199C21.8291 11.0286 21.0916 12.8092 19.7788 14.122L19.7778 14.121Z"/></g></svg>

<svg xmlns="http://www.w3.org/2000/svg" width="24" height="24" fill="none"><path fill="#191C22" d="m13.06 8.11 1.415 1.415a7 7 0 0 1 0 9.9l-.354.353a7 7 0 0 1-9.9-9.9l1.415 1.415a5 5 0 1 0 7.07 7.071l.355-.354a5 5 0 0 0 0-7.07l-1.415-1.415 1.415-1.414-.001-.001Zm6.718 6.011-1.414-1.414a5 5 0 1 0-7.071-7.071l-.354.354a5 5 0 0 0 0 7.07l1.415 1.415-1.415 1.414-1.414-1.414a7 7 0 0 1 0-9.9l.354-.353a7 7 0 0 1 9.9 9.9l-.001-.001Z"/></svg>
